X: 76
T: Xiu zhen tou
L: 1/16
M: 2/4
K: F
c4f3 d [I:setbarnb 1]| 
f2 c2 c d A G | 
F2 G A G2 C2 | 
F4G A G F | 
c8 | 
A2 c d2< f2 d | 
f2 c2 c d A G | 
F DF4G2 | 
c2 d f d c A2 | 
G8 | 
G2> c2 G2 A c | 
c2> f2 d2 f2 | 
F2 G A G F D2 | 
C2> C2 D F G A | 
G2> A2 G A c2 | 
D2 D F2< G2 A | 
G Ac4c2 | 
C AC4A2 | 
G2> F2 F G D2 | 
C8 |]

@@@ Tune index: 8744
